icons/speech-bubble-chevron-up.svg

<svg xmlns="http://www.w3.org/2000/svg" width="24" height="24" viewBox="0 0 24 24">
  <path d="M15,3 C19.5522847,3 23,6.44771525 23,11 C23,15.5522847 19.5522847,19 15,19 L15,19 L14.492,19 L14.4215793,19.0906275 C13.7103901,19.9663638 12.948642,20.6393906 11.8907103,21.256749 L11.8907103,21.256749 L11.5946555,21.4238497 L11.2369286,21.6140163 L10.9086251,21.7821926 C9.57755795,22.4597178 8,21.4937799 8,20 L8,20 L8,19 C4.27285013,19 1,15.3634999 1,11 C1,6.5377729 4.49099359,3 9,3 L9,3 Z M12.6128994,8.20970461 C12.2206082,7.90467972 11.6533772,7.93240926 11.2928932,8.29289322 L11.2928932,8.29289322 L8.29289322,11.2928932 L8.20970461,11.3871006 C7.90467972,11.7793918 7.93240926,12.3466228 8.29289322,12.7071068 L8.29289322,12.7071068 L8.38710056,12.7902954 C8.77939176,13.0953203 9.34662282,13.0675907 9.70710678,12.7071068 L9.70710678,12.7071068 L12,10.415 L14.2928932,12.7071068 L14.3871006,12.7902954 C14.7793918,13.0953203 15.3466228,13.0675907 15.7071068,12.7071068 C16.0976311,12.3165825 16.0976311,11.6834175 15.7071068,11.2928932 L15.7071068,11.2928932 L12.7071068,8.29289322 Z"/>
</svg>

<svg xmlns="http://www.w3.org/2000/svg" viewBox="0 0 24 24">
  <path d="M15 3c4.55 0 8 3.45 8 8s-3.45 8-8 8h-.5l-.08.1a8.85 8.85 0 0 1-2.53 2.16l-.3.16-.35.2-.33.16A2 2 0 0 1 8 20v-1c-3.73 0-7-3.64-7-8 0-4.46 3.5-8 8-8zm-2.39 5.21a1 1 0 0 0-1.32.08l-3 3-.08.1a1 1 0 0 0 .08 1.32l.1.08a1 1 0 0 0 1.32-.08L12 10.4l2.3 2.3.09.08a1 1 0 0 0 1.32-1.5l-3-3z"/>
</svg>
